X:1
T:Constant Billy, Fieldtown
S:CJS
A:Fieldtown
M:4/4
P:A(AB)4
L:1/8
K:G
P:A
|:D2|(3G2-G2d2 BAB2|cBAG FED2|BAG2 DEF2|DEF2 G2:|
P:B
|:z2|Bcd2 ecA2|(3B2-B2c2 dBG2|Bcd2 edc2|ABc2 (3d2-d2D2|
(3G2-G2d2 BAB2|cBAG FED2|BAG2 DEF2|DEF2 G2:)
